X: 344
T:Adieu mes amours
N: Derived from Jos2803-Adieu_mes_amours.krn
C: Josquin des Prez
%%abc-version 2.0
%%abcx-abcm2ps-target-version 5.9.1 (29 Sep 2008)
%%abc-creator hum2abc beta
%%abcx-conversion-date 2019/02/12 16:15:54
%%abc-edited-by Jesse Rodin
%%abc-edited-by Jesse Rodin; Victoria Chang 2011/07/27
%%abcx-initial-encoding-date 2011/07/27/
%%humdrum-veritas 425919441
%%humdrum-veritas-data 1147403752
%%linebreak <none>
%%barnumbers 0
L: 1/4
M: 2/1
Q: 1/2=120
%%staves [1 2 3 4]
V: 1 clef=treble
V: 2 clef=treble-8
V: 3 clef=treble-8
V: 4 clef=bass
K: F
[V:1] G4B4 | 
[V:2] g8 | 
[V:3] z8 | 
[V:4] z8 | 
[V:1] A4G4 | 
[V:2] f4g4- | 
[V:3] z8 | 
[V:4] z8 | 
[V:1] d6cB | 
[V:2] g2f2d4 | 
[V:3] G4B4 | 
[V:4] z8 | 
[V:1] c4B4 | 
[V:2] e2f2g4 | 
[V:3] A4G4 | 
[V:4] z8 | 
[V:1] z2A4GF | 
[V:2] f6ed | 
[V:3] d8 | 
[V:4] D,4F,4 | 
[V:1] G4F4 | 
[V:2] c4d4 | 
[V:3] z8 | 
[V:4] E,4D,4 | 
[V:1] z2c4BA | 
[V:2] e4f4 | 
[V:3] z8 | 
[V:4] A,8 | 
[V:1] B2G4A2- | 
[V:2] B3c_e2d2- | 
[V:3] z8 | 
[V:4] G,6F,2 | 
[V:1] A2GABAGF | 
[V:2] dcc4=B2 | 
[V:3] z8 | 
[V:4] E,4D,4 | 
[V:1] E8 | 
[V:2] c3defg2- | 
[V:3] c6B2 | 
[V:4] C,8 | 
[V:1] z4G4 | 
[V:2] gff4e2 | 
[V:3] A4G4 | 
[V:4] z8 | 
[V:1] A6B2 | 
[V:2] f2d3cBA | 
[V:3] F8 | 
[V:4] D,4F,4 | 
[V:1] c4d4 | 
[V:2] G4A3B | 
[V:3] z8 | 
[V:4] E,4D,4 | 
[V:1] z2c4BA | 
[V:2] c2d2e2f2 | 
[V:3] z8 | 
[V:4] A,8 | 
[V:1] B3AB2AG | 
[V:2] B3cdef2- | 
[V:3] G4B4 | 
[V:4] G,6F,2 | 
[V:1] F4G4 | 
[V:2] fed4^c2 | 
[V:3] A4G4 | 
[V:4] D,4E,4 | 
[V:1] z2F3GAB | 
[V:2] d4z2F2- | 
[V:3] d8 | 
[V:4] D,8 | 
[V:1] c3BAGB2- | 
[V:2] FGABc2G2- | 
[V:3] c6B2 | 
[V:4] A,4F,2G,2- | 
[V:1] BAG4^F2 | 
[V:2] GABcd3c | 
[V:3] G4A4 | 
[V:4] G,2E,2D,4 | 
[V:1] G6B2- | 
[V:2] d8 | 
[V:3] G8- | 
[V:4] G,8 | 
[V:1] B2AGB4 | 
[V:2] G4d4 | 
[V:3] G8 | 
[V:4] z8 | 
[V:1] A6c2- | 
[V:2] d4c4 | 
[V:3] z8 | 
[V:4] D,4A,4 | 
[V:1] c2BABAGF | 
[V:2] d8 | 
[V:3] z8 | 
[V:4] F,4G,4 | 
[V:1] E4F4 | 
[V:2] c4A4 | 
[V:3] z8 | 
[V:4] A,8 | 
[V:1] G6A2- | 
[V:2] B6AG | 
[V:3] G4d4 | 
[V:4] G,6F,2 | 
[V:1] AGB4AG | 
[V:2] F4G4 | 
[V:3] d4c4 | 
[V:4] D,4E,4 | 
[V:1] F8 | 
[V:2] A4z2d2 | 
[V:3] d8 | 
[V:4] D,8 | 
[V:1] z8 | 
[V:2] e3fgab2- | 
[V:3] c6B2 | 
[V:4] z8 | 
[V:1] z4c4 | 
[V:2] bag4^f2 | 
[V:3] G4A4 | 
[V:4] z8 | 
[V:1] B2d3cBA | 
[V:2] g4z4 | 
[V:3] G8- | 
[V:4] z8 | 
[V:1] G2B4AG | 
[V:2] G4d4 | 
[V:3] G8 | 
[V:4] z8 | 
[V:1] F2A3Bc2- | 
[V:2] d4c4 | 
[V:3] z8 | 
[V:4] D,4A,4 | 
[V:1] c2BABAGF | 
[V:2] d8 | 
[V:3] z8 | 
[V:4] F,4G,4 | 
[V:1] E4F4 | 
[V:2] c4A4 | 
[V:3] z8 | 
[V:4] A,8 | 
[V:1] G6A2- | 
[V:2] B6AG | 
[V:3] G4d4 | 
[V:4] G,6F,2 | 
[V:1] AGB4AG | 
[V:2] F4G4 | 
[V:3] d4c4 | 
[V:4] D,4_E,4 | 
[V:1] F8 | 
[V:2] A2B2F3G | 
[V:3] d8 | 
[V:4] D,2B,,3C,D,E, | 
[V:1] z4E4 | 
[V:2] ABc2G3A | 
[V:3] c6B2 | 
[V:4] F,2C,3D,E,F, | 
[V:1] D2G4^F2 | 
[V:2] B2c2d4- | 
[V:3] G4A4 | 
[V:4] G,2E,2D,4 | 
[V:1] G4B4 | 
[V:2] d4g4 | 
[V:3] G8 | 
[V:4] G,8 | 
[V:1] A4G4 | 
[V:2] f4g4- | 
[V:3] z8 | 
[V:4] z8 | 
[V:1] d6cB | 
[V:2] g2f2d4 | 
[V:3] G4B4 | 
[V:4] z8 | 
[V:1] c4B4 | 
[V:2] e2f2g4 | 
[V:3] A4G4 | 
[V:4] z8 | 
[V:1] z2A4GF | 
[V:2] f6ed | 
[V:3] d8 | 
[V:4] D,4F,4 | 
[V:1] G4F4 | 
[V:2] c4d4 | 
[V:3] z8 | 
[V:4] E,4D,4 | 
[V:1] z2c4BA | 
[V:2] e4f4 | 
[V:3] z8 | 
[V:4] A,8 | 
[V:1] B2G4A2- | 
[V:2] B3c_e2d2- | 
[V:3] z8 | 
[V:4] G,6F,2 | 
[V:1] A2GABAGF | 
[V:2] dcc4=B2 | 
[V:3] z8 | 
[V:4] E,4D,4 | 
[V:1] E8 | 
[V:2] c3defg2- | 
[V:3] c6B2 | 
[V:4] C,8 | 
[V:1] z4G4 | 
[V:2] gff4e2 | 
[V:3] A4G4 | 
[V:4] z8 | 
[V:1] A6B2 | 
[V:2] f2d3cBA | 
[V:3] F8 | 
[V:4] D,4F,4 | 
[V:1] c4d4 | 
[V:2] G4A3B | 
[V:3] z8 | 
[V:4] E,4D,4 | 
[V:1] z2c4BA | 
[V:2] c2d2e2f2 | 
[V:3] z8 | 
[V:4] A,8 | 
[V:1] B3AB2AG | 
[V:2] B3cdef2- | 
[V:3] G4B4 | 
[V:4] G,6F,2 | 
[V:1] F4G4 | 
[V:2] fed4^c2 | 
[V:3] A4G4 | 
[V:4] D,4E,4 | 
[V:1] z2F3GAB | 
[V:2] d4z2F2- | 
[V:3] d8 | 
[V:4] D,8 | 
[V:1] c3BAGB2- | 
[V:2] FGABc2G2- | 
[V:3] c6B2 | 
[V:4] A,4F,2G,2- | 
[V:1] BAG4^F2 | 
[V:2] GABcd4- | 
[V:3] G4A4 | 
[V:4] G,2E,2D,4 | 
[V:1] G8- | 
[V:2] d2B2_e3d | 
[V:3] G8- | 
[V:4] G,8- | 
[V:1] G8 |]  
[V:2] d8 |]  
[V:3] G8 |]  
[V:4] G,8 |]  



